icons/shellscript-logo.svg

<svg xmlns="http://www.w3.org/2000/svg" width="256" height="256" fill="none" viewBox="0 0 256 256"><rect width="256" height="256" fill="#F4F2ED" rx="60"/><path fill="#FEFEFE" fill-rule="evenodd" d="M203.819 68.8354L140.679 31.3552C133.143 26.8816 123.854 26.8816 116.318 31.3552L53.1774 68.8354C45.6434 73.3091 41 81.575 41 90.5223V165.483C41 174.428 45.6434 182.698 53.1796 187.172L116.32 224.645C120.088 226.883 124.29 227.999 128.499 227.999C132.706 227.999 136.909 226.883 140.677 224.645L203.817 187.172C211.353 182.698 215.999 174.428 215.999 165.483V90.5223C215.999 81.575 211.353 73.3091 203.819 68.8354Z" clip-rule="evenodd"/><path fill="#3E474A" fill-rule="evenodd" d="M118.527 220.808L55.3866 183.334C49.2108 179.668 45.3744 172.828 45.3744 165.482V90.5234C45.3744 83.1768 49.2109 76.3374 55.3844 72.673L118.527 35.1928C121.554 33.3958 125.002 32.4455 128.499 32.4455C131.994 32.4455 135.442 33.3958 138.472 35.1928L201.612 72.673C206.816 75.7619 210.326 81.1109 211.313 87.1103C209.219 82.6411 204.496 81.4262 198.993 84.6409L139.259 121.537C131.811 125.891 126.319 130.777 126.314 139.758V213.362C126.31 218.74 128.482 222.223 131.818 223.233C130.722 223.423 129.617 223.555 128.499 223.555C125.002 223.555 121.554 222.605 118.527 220.808ZM203.819 68.8343L140.679 31.3563C136.911 29.1184 132.704 28.0005 128.499 28.0005C124.293 28.0005 120.086 29.1184 116.318 31.3563L53.1774 68.8343C45.6434 73.308 41 81.5761 41 90.5234V165.482C41 174.427 45.6434 182.697 53.1796 187.171L116.32 224.646C120.09 226.882 124.293 228 128.499 228C132.706 228 136.909 226.882 140.677 224.646L203.819 187.171C211.355 182.697 215.999 174.427 215.999 165.482V90.5234C215.999 81.5761 211.355 73.308 203.819 68.8343Z" clip-rule="evenodd"/><path fill="#47B353" fill-rule="evenodd" d="M187.267 172.729L171.545 182.139C171.128 182.382 170.822 182.655 170.819 183.156V187.27C170.819 187.773 171.157 187.982 171.573 187.737L187.539 178.034C187.955 177.791 188.019 177.326 188.022 176.825V173.196C188.022 172.696 187.684 172.486 187.267 172.729Z" clip-rule="evenodd"/><path fill="#FEFEFE" fill-rule="evenodd" d="M153.788 138.098C154.297 137.84 154.716 138.157 154.723 138.823L154.776 144.262C157.053 143.356 159.031 143.114 160.823 143.528C161.212 143.632 161.384 144.161 161.225 144.789L160.028 149.609C159.935 149.973 159.73 150.341 159.483 150.57C159.379 150.672 159.273 150.751 159.168 150.804C159.007 150.886 158.848 150.912 158.696 150.881C157.878 150.696 155.933 150.271 152.873 151.821C149.663 153.446 148.54 156.235 148.562 158.305C148.589 160.777 149.857 161.526 154.235 161.601C160.069 161.698 162.59 164.247 162.651 170.123C162.711 175.893 159.631 182.089 154.919 185.886L155.023 191.27C155.029 191.918 154.608 192.661 154.099 192.919L150.91 194.756C150.399 195.014 149.98 194.696 149.973 194.048L149.918 188.752C147.187 189.887 144.419 190.161 142.651 189.451C142.318 189.321 142.175 188.829 142.307 188.269L143.463 183.401C143.555 183.017 143.758 182.633 144.034 182.389C144.131 182.294 144.232 182.221 144.333 182.17C144.516 182.078 144.695 182.058 144.847 182.115C146.752 182.757 149.189 182.457 151.532 181.271C154.509 179.765 156.5 176.729 156.469 173.713C156.44 170.976 154.959 169.839 151.356 169.812C146.77 169.825 142.495 168.921 142.424 162.17C142.367 156.612 145.257 150.828 149.832 147.171L149.775 141.736C149.768 141.068 150.176 140.333 150.701 140.069L153.788 138.098Z" clip-rule="evenodd"/></svg>

<svg xmlns="http://www.w3.org/2000/svg" width="256" height="256" viewBox="0 0 256 256"><g fill="none"><rect width="256" height="256" fill="#242938" rx="60"/><path fill="#242938" fill-rule="evenodd" d="m203.819 68.835l-63.14-37.48a23.787 23.787 0 0 0-24.361 0l-63.14 37.48C45.642 73.31 41 81.575 41 90.522v74.961c0 8.945 4.643 17.215 12.18 21.689l63.14 37.473a23.808 23.808 0 0 0 12.179 3.354a23.81 23.81 0 0 0 12.178-3.354l63.14-37.473c7.536-4.474 12.182-12.744 12.182-21.689v-74.96c0-8.948-4.646-17.214-12.18-21.688" clip-rule="evenodd"/><path fill="#fff" fill-rule="evenodd" d="m118.527 220.808l-63.14-37.474c-6.176-3.666-10.013-10.506-10.013-17.852V90.523c0-7.346 3.837-14.186 10.01-17.85l63.143-37.48a19.55 19.55 0 0 1 9.972-2.747c3.495 0 6.943.95 9.973 2.747l63.14 37.48c5.204 3.089 8.714 8.438 9.701 14.437c-2.094-4.469-6.817-5.684-12.32-2.47l-59.734 36.897c-7.448 4.354-12.94 9.24-12.945 18.221v73.604c-.004 5.378 2.168 8.861 5.504 9.871c-1.096.19-2.201.322-3.319.322a19.55 19.55 0 0 1-9.972-2.747m85.292-151.974l-63.14-37.478A23.825 23.825 0 0 0 128.499 28a23.826 23.826 0 0 0-12.181 3.356l-63.14 37.478C45.642 73.308 41 81.576 41 90.524v74.958c0 8.945 4.643 17.215 12.18 21.689l63.14 37.475A23.84 23.84 0 0 0 128.499 228a23.83 23.83 0 0 0 12.178-3.354l63.142-37.475c7.536-4.474 12.18-12.744 12.18-21.689V90.523c0-8.947-4.644-17.215-12.18-21.689" clip-rule="evenodd"/><path fill="#47B353" fill-rule="evenodd" d="m187.267 172.729l-15.722 9.41c-.417.243-.723.516-.726 1.017v4.114c0 .503.338.712.754.467l15.966-9.703c.416-.243.48-.708.483-1.209v-3.629c0-.5-.338-.71-.755-.467" clip-rule="evenodd"/><path fill="#242938" fill-rule="evenodd" d="M153.788 138.098c.509-.258.928.059.935.725l.053 5.439c2.277-.906 4.255-1.148 6.047-.734c.389.104.561.633.402 1.261l-1.197 4.82c-.093.364-.298.732-.545.961a1.29 1.29 0 0 1-.315.234a.712.712 0 0 1-.472.077c-.818-.185-2.763-.61-5.823.94c-3.21 1.625-4.333 4.414-4.311 6.484c.027 2.472 1.295 3.221 5.673 3.296c5.834.097 8.355 2.646 8.416 8.522c.06 5.77-3.02 11.966-7.732 15.763l.104 5.384c.006.648-.415 1.391-.924 1.649l-3.189 1.837c-.511.258-.93-.06-.937-.708l-.055-5.296c-2.731 1.135-5.499 1.409-7.267.699c-.333-.13-.476-.622-.344-1.182l1.156-4.868c.092-.384.295-.768.571-1.012c.097-.095.198-.168.299-.219c.183-.092.362-.112.514-.055c1.905.642 4.342.342 6.685-.844c2.977-1.506 4.968-4.542 4.937-7.558c-.029-2.737-1.51-3.874-5.113-3.901c-4.586.013-8.861-.891-8.932-7.642c-.057-5.558 2.833-11.342 7.408-14.999l-.057-5.435c-.007-.668.401-1.403.926-1.667z" clip-rule="evenodd"/></g></svg>
